X: 2112
T: Çıkmaz Derûn-ü Dilden
C: Tab`î Mustafa Efendi
O: Turkey
F: http://compmusic.upf.edu/node/140
N: beyati--agirsemai--aksaksemai--cikmaz_derun_u--tabi_mustafa_efendi
N: makam= beyati
N: form= agirsemai
N: usul= aksaksemai = 10/8
M: 10/8
L: 1/16
K: C _2/4B   
Q: 1/4=138
%%MIDI tuningsystem comma53
z4 z2z4z4e4d2  | d4 c2d2 c2d2 e2c4B2  | \
w:  Çık  |  maz  de rûn_ *  *  ü  dil  | 
c4 B2c2 B2{^3/4f}g2 g2g2 =f2e2  | 
w:  *  *  *  *  *  den_ e fen  | 
d4 .G4 A2B2 c2d4c2  | B4 A2{B}G4e2 d2d4c2  | \
w:  *  dim  mu hab  |  *  *  *  *  be *  tin   | 
B4 A8 z2e4d2  | d4 c2d2 c2d2 e2c4B2  | 
w:  vay   *  Kur  |  bâ nın_ ol *  *  du ğum   | 
c4 B2c2 B2{^3/4f}g2 g2g2 =f2e2  | \
w:  *  *  *  *  *  bi ze  yok   | 
d4 .G4 A2B2 c2d4c2  | B4 A2{B}G4e2 d2d4c2  | 
w:  *  mu  mü rüv  |  *  *  *  *  ve *  tin   | 
z24  | B4c4B4A4A6z2  | G4A4{B}A2G2B2c2d8  | \
w:  |  vay    |  Sen  han *  *  *  gi  *  ba  | 
e2d2d2{e}c4B2e2{f}edd6z2  | 
w:  ğın  *  *  *  *  *  gü *  lü *  sün   | 
G4A4{B}A2G2B2c2d3_3/4ededc  | ^3/4f_3/4edc{d}c6B2B2{c}BAA6z2  | 
w:  ne  gül *  *  *  şe *  nin   |  bül *  *  *  *  *  *  bü *  lü *  sün    | 
G4A4{B}A2G2B2c2d6z2  | e2{f}edc8B2c2B4{c}B2A2  | \
w:  Ey  serv_ *  *  *  i  se men   |  bûy_  | 
A8G2c2B2A2A6z2  | 
w:  *  i  re sî *  dem    | 
G4A4{B}A2G2B2c2.d8  | e2{f}edc8B2c2B4B2A2  | \
w:  Ey  â *  *  *  fet_ i  dil   |  cûy_  | 
{B}A8G2c2B2{c}^2/4A2B6z2  | 
w:  *  *  i  gü zî *  *  dem    | 
z20  | z4 G2B4B4.B6  | c4 {c}e6d4c2 {d}B2A2  | \
w:  |  Ne dir  o  iş  |  ve *  ler  ne dir   | 
G2z2 G2B4B4.B6  | c4 {c}e4 e2d4c2 B2A2  | 
w:  *  ne dir  o  şî  |  ve *  ler  *  ne dir    | 
{B}G2z2 c2d4d4d6  | d4 d4 e2d2 {e}c2c4BA  | \
w:  *  *  Te ga fü lâ  |  ne  nâz  *  i *  *  le   | 
B4 c2d4d4d6  | d4 d4 e2d2 c2{d}c4BA  | 
w:  *  te ga fü lâ  |  ne  nâz  *  i *  *  le    | 
B4 e2d4c2 B2B4A2  | A4 A4 G2.d4d6  | \
w:  *  ki  bu  gi *  riş  |  me ler  *  ne dir   | 
z4 d2d4c2 B2d4c2  | c4 c4 B2B2 A2A6  | 
w:  ki  bu  gi *  riş  |  me ler  *  ne *  dir    | 
z4 d2e4e4e6  | e4 e4 f2g2 e2e4d2  | z4 d2e4e4a4e2  | \
w:  Gö ren  o  gül   |  ce mâ *  li *  ni   |  gö ren  o  gül   | 
e2d2 d4 e2d2 c2{d}c6  | 
w:  ce *  mâ *  li *  *  ni    | 
z4 G2c4c4c6  | c4 c4 _3/4d2d2 c2c2 BABc  | \
w:  ta sav vur  ey  |  ler  ha *  li *  ni   | 
B4 c16  | z4 d2e4e4e6  | 
w:  vay    |  Ha yâl_ i  lâ  | 
e4 e4 f2g2 e2e4d2  | .d4 d2e4e4e6  | \
w:  lin_ ey *  le *  yen   |  *  ha yâl_ i  lâ  | 
e4 e4 f2g2 e2e4d2  | z4 c2d4d4d4c2  | 
w:  lin_ ey *  le *  yen    |  se nin  çe ker   | 
c4 c4 B2d4.d6  | z4 c2d4d4d4c2  | z24  | \
w:  ve bâ *  li ni   |  se nin  çe ker   |  | 
c4c4{d}c2B2B2A2z2e4d2  | 
w:  ve bâ *  *  *  li ni   Kur  | 
z20  | d4 c2d2 c2d2 e2c4B2  | c4 B2c2 B2{^3/4f}g2 g2g2 =f2e2  | \
w:  |  bâ nın_ ol *  *  du ğum   |  *  *  *  *  *  bi ze  yok   | 
d4 .G4 A2B2 c2d4c2  | 
w:  *  mu  mü rüv  | 
B4 A2{B}G4e2 d2d4c2  | B4 A2A6 z2g4a2  | \
w:  *  *  *  *  ve *  tin   |  vay   *  *  Ey   | 
a4 g2c'2 b2a2 g2^3/4f4e2  | 
w:  dil  ne dir  *  *  bu  mer  | 
d4 d2{d}a2 g2f2 e2d4c2  | B2A2 G4 A2B2 c2d2 e2d2  | \
w:  *  te *  be  *  *  *  hâ  |  *  *  hiş  | 
c4 c2B2 c2B2 c2B4A2  | 
w:  *  le rin  *  *  se nin   | 
A8-A2z4e4d2  | d4 c2d2 c2d2 e2c4B2  | \
w:  vay   Cây_  |  ı  me râ *  mın_ üz  | 
c4 B2c2 B2{^3/4f}g2 g2g2 =f2e2  | 
w:  *  *  *  *  *  re  i ka  | 
d4 .G4 A2B2 c2d4c2  | B4 A2{B}G4e2 d2d4c2  | \
w:  *  met  mi  niy  |  *  *  *  *  ye *  tin   | 
B4 A14z2  | |


